suite-common/icons/assets/icons/check.svg

<svg xmlns="http://www.w3.org/2000/svg" xml:space="preserve" fill="none" viewBox="0 0 24 24">
  <path fill="#000" fill-rule="evenodd" d="M19.96 6.063c-.092.039-1.88 1.799-5.17 5.088l-5.029 5.028-2.391-2.385c-1.314-1.312-2.453-2.417-2.529-2.455-.173-.087-.503-.091-.662-.008a.756.756 0 0 0-.357.98c.043.103.861.95 2.67 2.762 1.434 1.436 2.692 2.674 2.794 2.75.233.173.482.215.724.123.138-.053 1.166-1.061 5.537-5.436 5.869-5.873 5.498-5.47 5.435-5.891-.023-.153-.064-.225-.217-.377-.246-.247-.51-.305-.805-.179"/>
</svg>

<svg xmlns="http://www.w3.org/2000/svg" xml:space="preserve" fill="none" viewBox="0 0 24 24"><path d="M19.960 6.063 C 19.868 6.102,18.080 7.862,14.790 11.151 L 9.761 16.179 7.370 13.794 C 6.056 12.482,4.917 11.377,4.841 11.339 C 4.668 11.252,4.338 11.248,4.179 11.331 C 3.813 11.522,3.664 11.932,3.822 12.311 C 3.865 12.414,4.683 13.261,6.492 15.073 C 7.926 16.509,9.184 17.747,9.286 17.823 C 9.519 17.996,9.768 18.038,10.010 17.946 C 10.148 17.893,11.176 16.885,15.547 12.510 C 21.416 6.637,21.045 7.040,20.982 6.619 C 20.959 6.466,20.918 6.394,20.765 6.242 C 20.519 5.995,20.255 5.937,19.960 6.063 " stroke="none" fill-rule="evenodd" fill="black"></path></svg>
